icons-rebrand/svg/applications-light.svg

<svg width="32" height="32" viewBox="0 0 32 32" fill="none" xmlns="http://www.w3.org/2000/svg">
<path d="M25 2.5H13C11.8078 2.50132 10.6647 2.97516 9.82124 3.81771C8.97776 4.66026 8.50265 5.8028 8.5 6.995V12.5H7C5.80693 12.5013 4.66311 12.9759 3.81948 13.8195C2.97585 14.6631 2.50132 15.8069 2.5 17V25C2.50132 26.1931 2.97585 27.3369 3.81948 28.1805C4.66311 29.0241 5.80693 29.4987 7 29.5H20C21.1931 29.4987 22.3369 29.0241 23.1805 28.1805C24.0241 27.3369 24.4987 26.1931 24.5 25V19.5H25C26.1931 19.4987 27.3369 19.0241 28.1805 18.1805C29.0241 17.3369 29.4987 16.1931 29.5 15V7C29.4987 5.80693 29.0241 4.66311 28.1805 3.81948C27.3369 2.97585 26.1931 2.50132 25 2.5ZM13 3.5H25C25.8395 3.50235 26.6501 3.80678 27.2836 4.35764C27.9171 4.9085 28.3311 5.66897 28.45 6.5H9.55C9.6689 5.66897 10.0829 4.9085 10.7164 4.35764C11.3499 3.80678 12.1605 3.50235 13 3.5ZM7 13.5H20C20.8395 13.5023 21.6501 13.8068 22.2836 14.3576C22.9171 14.9085 23.3311 15.669 23.45 16.5H3.55C3.66889 15.669 4.08294 14.9085 4.71643 14.3576C5.34991 13.8068 6.16051 13.5023 7 13.5ZM23.5 25C23.4989 25.9279 23.1299 26.8176 22.4737 27.4737C21.8176 28.1299 20.9279 28.4989 20 28.5H7C6.07207 28.4989 5.18244 28.1299 4.5263 27.4737C3.87015 26.8176 3.50106 25.9279 3.5 25V17.5H23.5V25ZM28.5 15C28.4989 15.9279 28.1299 16.8176 27.4737 17.4737C26.8176 18.1299 25.9279 18.4989 25 18.5H24.5V17C24.4987 15.8069 24.0241 14.6631 23.1805 13.8195C22.3369 12.9759 21.1931 12.5013 20 12.5H9.5V7.5H28.5V15Z" fill="#0F0F0F"/>
</svg>

<svg width="32" height="32" viewBox="0 0 32 32" fill="none" xmlns="http://www.w3.org/2000/svg"><path d="M25 2.5H13a4.505 4.505 0 0 0-4.5 4.495V12.5H7A4.505 4.505 0 0 0 2.5 17v8A4.505 4.505 0 0 0 7 29.5h13a4.505 4.505 0 0 0 4.5-4.5v-5.5h.5a4.505 4.505 0 0 0 4.5-4.5V7A4.505 4.505 0 0 0 25 2.5zm-12 1h12a3.495 3.495 0 0 1 3.45 3H9.55a3.495 3.495 0 0 1 3.45-3zm-6 10h13a3.495 3.495 0 0 1 3.45 3H3.55a3.495 3.495 0 0 1 3.45-3zM23.5 25a3.504 3.504 0 0 1-3.5 3.5H7A3.504 3.504 0 0 1 3.5 25v-7.5h20V25zm5-10a3.504 3.504 0 0 1-3.5 3.5h-.5V17a4.505 4.505 0 0 0-4.5-4.5H9.5v-5h19V15z" fill="#0F0F0F"/></svg>
